public/images/twitter.svg

<svg width="32" height="32" viewBox="0 0 32 32" fill="none" xmlns="http://www.w3.org/2000/svg">
<g id="Group 79">
<rect id="Rectangle 141" x="0.75" y="0.75" width="30.5" height="30.5" rx="7.25" stroke="white" stroke-width="1.5"/>
<path id="Vector" d="M23.9638 12.8389C23.9638 12.6528 23.9602 12.4689 23.9519 12.2863C24.7538 11.6938 25.4497 10.9521 26 10.1033C25.2526 10.4368 24.4574 10.6525 23.6429 10.7427C24.4906 10.2255 25.1407 9.39827 25.4479 8.40556C24.6542 8.88285 23.7762 9.22408 22.8427 9.40187C22.0947 8.558 21.0274 8.02051 19.8474 8.00054C17.5812 7.96339 15.7442 9.86224 15.7442 12.2412C15.7442 12.5793 15.7798 12.9073 15.8506 13.2239C12.4381 13.0062 9.41408 11.2449 7.39129 8.58976C7.03833 9.22589 6.83584 9.96934 6.83584 10.7661C6.83584 12.273 7.56027 13.6123 8.66097 14.4026C7.98713 14.3724 7.3559 14.17 6.80225 13.8383V13.8936C6.80225 15.9997 8.21711 17.7643 10.0945 18.176C9.75028 18.2731 9.38727 18.3236 9.01393 18.3218C8.75453 18.3204 8.49598 18.2924 8.24244 18.238C8.76409 19.9639 10.2802 21.2248 12.0751 21.2668C10.6703 22.4217 8.90076 23.1116 6.97952 23.1068C6.64827 23.1068 6.32092 23.0847 6 23.0448C7.81663 24.2804 9.97303 25 12.2911 25C19.8371 25.0018 23.9638 18.4893 23.9638 12.8389Z" fill="white"/>
</g>
</svg>

<svg xmlns="http://www.w3.org/2000/svg" width="32" height="32" fill="none"><rect width="30.5" height="30.5" x=".75" y=".75" stroke="#fff" stroke-width="1.5" rx="7.25"/><path fill="#fff" d="M23.964 12.839c0-.186-.004-.37-.012-.553A8.39 8.39 0 0 0 26 10.103a7.925 7.925 0 0 1-2.357.64 4.18 4.18 0 0 0 1.805-2.337 7.927 7.927 0 0 1-2.605.996A4.096 4.096 0 0 0 19.847 8c-2.266-.038-4.103 1.861-4.103 4.24 0 .338.036.666.107.983-3.413-.218-6.437-1.98-8.46-4.634a4.475 4.475 0 0 0-.555 2.176c0 1.507.724 2.846 1.825 3.637a3.95 3.95 0 0 1-1.859-.565v.056c0 2.106 1.415 3.87 3.293 4.282a3.908 3.908 0 0 1-1.853.062c.522 1.726 2.038 2.987 3.833 3.029-1.405 1.155-3.174 1.845-5.095 1.84-.332 0-.66-.022-.98-.062A11.135 11.135 0 0 0 12.291 25c7.546.002 11.673-6.51 11.673-12.161Z"/></svg>
